!!!!SEGMENT: pl-kk--kk-i-7--052-004_palestrina-giovanni-pierluigi-da--missa-de-sanctis-apostolis-agnus-dei.krn
!!!cenid: 16xx:874
!!!COM: Palestrina, Giovanni Pierluigi da
!!!COM-rismID: pe1904
!!!CDT: ~1525-1594/02/02
!!!CNT: Italian
!!!OPR: Missa de Sanctis Apostolis
!!!OTL: Agnus Dei
!!!OMV: 004
!!!PDT:
!!!AGN: Sacred; Mass
!!!SMS-siglum: PL-Kk
!!!SMS-shelfmark: Kk.I.7
!!!SMS-shelfwork: 052-004 M
!!!SMS-variant:
!!!SMS-altvar:
!!!NIFC-rismSourceID: 300258077
!!!NIFC-rismChildID: 300258129
!!!NIFC-islandoraID: pl-kk:1956
!!!URL-pdf-islandora: https://repozytorium.nifc.pl/islandora/object/pl-kk%3A1956/datastream/PDF/view
!!!URL-scan: https://polish.musicsources.pl/pl/lokalizacje/galeria/rekopisy/6140 @EN{Scan on Polish Music Sources Website} @PL{Skany w portalu Dziedzictwo Muzyki Polskiej w otwartym dostępie}
!!!ONB-nifc: UWAGA: C (skan 0049-0050, s.90-92), A (0133-0134, s.86-88), T(0209-0210, s.80-82), B(0297-0298, s.80-82). Części Mszy: 1. Kyrie, 2. Et in terra, 3. Sanctus, 4. Agnus Dei. &quot;Agnus II&quot; rozpisane na 5 głosów. Głos dodatkowy zapisany w księdze T na stronie 82
!!!AIN: 1 alto 1 empty 2 tenor 1 vox
!!!key:
**kern	**text	**kern	**text	**kern	**text	**kern	**text	**kern	**text
*part5	*part5	*part4	*part4	*part3	*part3	*part2	*part2	*part1	*part1
*staff5	*staff5	*staff4	*staff4	*staff3	*staff3	*staff2	*staff2	*staff1	*staff1
*Iempty	*	*Itenor	*	*Itenor	*	*Ialto	*	*Ivox	*
*I"[Baſso]	*	*I"[TenoreII]	*	*I"[TenoreI]	*	*I"[Alto]	*	*I"[Canto]	*
*I'B	*	*I'TII	*	*I'TI	*	*I'A	*	*I'C	*
*clefF3	*	*clefC3	*	*clefC3	*	*clefC2	*	*clefC1	*
*k[b-b-]	*	*k[b-]	*	*k[b-]	*	*k[b-b-]	*	*k[b-]	*
*B-:	*	*B-:	*	*B-:	*	*B-:	*	*B-:	*
*M2/1	*	*M2/1	*	*M2/1	*	*M2/1	*	*M2/1	*
*met(C|)	*	*met(C|)	*	*met(C|)	*	*met(C|)	*	*met(C|)	*
=1-	=1-	=1-	=1-	=1-	=1-	=1-	=1-	=1-	=1-
!LO:TX:t=P:problem=kreska pseudotaktowa	!	!	!	!	!	!	!	!	!
!LO:TX:t=P:problem=zdwojony znak przykluczowy	!	!	!	!	!	!LO:TX:t=P:problem=zdwojony znak przykluczowy	!	!	!
1r	.	0ryy	.	00r	.	1c/	A-	00r	.
!	!	!	!	!	!	!LO:TX:t=P:problem=kreska pseudotaktowa	!	!	!
1F\	A-	.	.	.	.	1c/	-gnus	.	.
=2-	=2-	=2-	=2-	=2-	=2-	=2-	=2-	=2-	=2-
!LO:TX:t=P:problem=kreska pseudotaktowa	!	!	!	!	!	!	!	!	!
1F\	-gnus	0ryy	.	.	.	1d/	De-	.	.
1G\	De-	.	.	.	.	1.e\	-i	.	.
=3-	=3-	=3-	=3-	=3-	=3-	=3-	=3-	=3-	=3-
!LO:TX:t=P:problem=kreska pseudotaktowa	!	!	!	!	!	!	!	!	!
1A\	-i	0ryy	.	00r	.	.	.	0r	.
.	.	.	.	.	.	2c/	a-	.	.
*2\right	*	*	*	*	*	*	*	*	*
2F\	a-	.	.	.	.	2d/	.	.	.
!	!	!	!	!	!	!LO:TX:t=P:problem=kreska pseudotaktowa	!	!	!
2G\	.	.	.	.	.	2e/	.	.	.
=4-	=4-	=4-	=4-	=4-	=4-	=4-	=4-	=4-	=4-
*	*	*	*	*	*	*2\right	*	*	*
!	!	!	!	!	!	!	!	!LO:TX:t=P:problem=kreska pseudotaktowa	!
2A\	-gn(us)	0ryy	.	.	.	2.f\	.	1r	.
1B-\	De-	.	.	.	.	.	.	.	.
.	.	.	.	.	.	4e/	.	.	.
.	.	.	.	.	.	2d/	.	1f/	A-
!LO:TX:t=P:problem=kreska pseudotaktowa	!	!	!	!	!	!	!	!	!
2A\	.	.	.	.	.	2c/	-gnus	.	.
=5-	=5-	=5-	=5-	=5-	=5-	=5-	=5-	=5-	=5-
2.B-\	.	0ryy	.	1B-/	A-	2d/	.	1f/	-gnus
.	.	.	.	.	.	1f\	De-	.	.
!LO:TX:t=P:problem=kreska pseudotaktowa	!	!	!	!	!	!	!	!	!
4A\	.	.	.	.	.	.	.	.	.
!	!	!	!	!LO:TX:t=P:problem=kreska pseudotaktowa	!	!	!	!	!
1G\	.	.	.	1B-/	-gnus	.	.	1g\	De-
.	.	.	.	.	.	2e\	.	.	.
=6-	=6-	=6-	=6-	=6-	=6-	=6-	=6-	=6-	=6-
!LO:TX:t=P:problem=kreska pseudotaktowa	!	!	!	!	!	!LO:TX:t=P:problem=kreska pseudotaktowa	!	!	!
1F\	-i.	0ryy	.	1c\	De-	1f\,	-i	1.a\	-i
!	!	!	!	!LO:TX:t=P:problem=kreska pseudotaktowa	!	!	!	!	!
2r	.	.	.	1d\	-i	2.f\	A-	.	.
!	!	!	!	!	!	!	!	!LO:TX:t=P:problem=kreska pseudotaktowa	!
1B-\	A-	.	.	.	.	.	.	2f/	a-
.	.	.	.	.	.	4e/	.	.	.
=7-	=7-	=7-	=7-	=7-	=7-	=7-	=7-	=7-	=7-
*	*	*	*	*	*	*	*	*2\right	*
.	.	0ryy	.	2B-/	A-	2d/	-gn(us)	2g\	.
!LO:TX:t=P:problem=kreska pseudotaktowa	!	!	!	!	!	!	!	!	!
2A\	-gn(us)	.	.	2c/	-gnus	2c/	.	2a\	-gnus
*	*	*	*	*2\right	*	*	*	*	*
2G\	De-	.	.	2d\	De-	2B-/	De-	2.b-\	De-
!	!	!	!	!LO:TX:a:t=P:problem=♭ above	!	!	!	!	!
4E-X/	.	.	.	1e-X\	.	4G/	.	.	.
4F,/	.	.	.	.	.	4A/	.	4a\	.
=8-	=8-	=8-	=8-	=8-	=8-	=8-	=8-	=8-	=8-
4G\	.	0ryy	.	.	.	4B-/	.	2g/	.
4A\	.	.	.	.	.	4c/	.	.	.
!	!	!	!	!LO:TX:t=P:problem=kreska pseudotaktowa	!	!LO:TX:t=P:problem=kreska pseudotaktowa	!	!	!
2B-\	.	.	.	2d\	.	2d/	.	2f/	.
1E-X/	.	.	.	2c/	.	2.e-X/	.	1g\	.
.	.	.	.	1B-/	.	.	.	.	.
.	.	.	.	.	.	4d/	.	.	.
=9-	=9-	=9-	=9-	=9-	=9-	=9-	=9-	=9-	=9-
!	!	!	!	!	!	!	!	!LO:TX:t=P:problem=kreska pseudotaktowa	!
1F\	.	0ryy	.	.	.	1c/	.	0f/	-i
.	.	.	.	2A/	.	.	.	.	.
*	*	*	*	*	*	*custos:B-	*	*	*
!	!	!	!	!	!	!LO:TX:t=P:problem=kreska pseudotaktowa	!	!	!
!	!	!	!	!	!	!LO:TX:b:t=Cito Vertat	!	!	!
0.BB-/	-i.	.	.	2B-,/	-i	1d/,	-i.	.	.
.	.	.	.	2B-/	qui	.	.	.	.
!	!	!	!	!	!	!LO:PB:g=original	!	!	!
=10-	=10-	=10-	=10-	=10-	=10-	=10-	=10-	=10-	=10-
.	.	0ryy	.	2d\	tol-	2r	.	1r	.
!	!	!	!	!LO:TX:t=P:problem=kreska pseudotaktowa	!	!	!	!	!
.	.	.	.	2d\	-lis	2B-/	qui	.	.
.	.	.	.	2.f\	pec-	2d/	tol-	2r	.
.	.	.	.	.	.	2d/	-lis	2f/	Qui
.	.	.	.	4e\	.	.	.	.	.
=11-	=11-	=11-	=11-	=11-	=11-	=11-	=11-	=11-	=11-
!LO:TX:t=P:problem=kreska pseudotaktowa	!	!	!	!	!	!	!	!	!
00r	.	0ryy	.	4d\	-ca-	1f\	pec-	2a\	tol-
.	.	.	.	4c\	.	.	.	.	.
.	.	.	.	2d\	.	.	.	2b-\	-lis
.	.	.	.	2c/	.	2e\	-ca-	1cc\	pec-
!	!	!	!	!	!	!LO:TX:t=P:problem=kreska pseudotaktowa	!	!	!
.	.	.	.	2A/	.	2a\	-te	.	.
=12-	=12-	=12-	=12-	=12-	=12-	=12-	=12-	=12-	=12-
.	.	0ryy	.	2B-/	-ta	4g\	.	2dd\	-ca-
.	.	.	.	.	.	4f\	.	.	.
!	!	!	!	!LO:TX:t=P:problem=kreska pseudotaktowa	!	!	!	!	!
.	.	.	.	2F/	.	1f\	mun-	2a\	.
.	.	.	.	1G/	mun-	.	.	1b-\	-ta
.	.	.	.	.	.	2e/	.	.	.
=13-	=13-	=13-	=13-	=13-	=13-	=13-	=13-	=13-	=13-
!	!	!	!	!LO:TX:t=P:problem=kreska pseudotaktowa	!	!	!	!	!
2r	.	0ryy	.	1F/	-di	1.a\	.	1.cc\	mun-
!LO:TX:t=P:problem=kreska pseudotaktowa	!	!	!	!	!	!	!	!	!
2F\	Qui	.	.	.	.	.	.	.	.
2A\	tol-	.	.	00r	.	.	.	.	.
2B-\	-lis	.	.	.	.	4g\	.	4b-\	.
.	.	.	.	.	.	4f\	.	4a\	.
=14-	=14-	=14-	=14-	=14-	=14-	=14-	=14-	=14-	=14-
!	!	!	!	!	!	!LO:TX:t=P:problem=kreska pseudotaktowa	!	!	!
1c\	pec-	0ryy	.	.	.	1e\	.	2.g/	-di
.	.	.	.	.	.	.	.	4a/	.
2d\	.	.	.	.	.	2f,\	-di	4b-\	pec-
.	.	.	.	.	.	.	.	4a\	.
2A\	-ca-	.	.	.	.	2a\	pec-	2cc\	-ca-
=15-	=15-	=15-	=15-	=15-	=15-	=15-	=15-	=15-	=15-
!LO:TX:t=P:problem=kreska pseudotaktowa	!	!	!	!LO:TX:t=P:problem=kreska pseudotaktowa	!	!	!	!	!
1B-\	-ta	0ryy	.	.	.	2g\	-ca-	2.b-\	.
.	.	.	.	.	.	1f\	-ta	.	.
.	.	.	.	.	.	.	.	4a\	.
2.c\	mun-	.	.	1r	.	.	.	2g/	.
.	.	.	.	.	.	2e\	mun-	2cc\	.
!LO:TX:t=P:problem=kreska pseudotaktowa	!	!	!	!	!	!	!	!	!
4B-\	.	.	.	.	.	.	.	.	.
!LO:LB:g=original	!	!	!	!	!	!	!	!	!
=16-	=16-	=16-	=16-	=16-	=16-	=16-	=16-	=16-	=16-
!	!	!	!	!	!	!LO:TX:t=P:problem=kreska pseudotaktowa	!	!	!
4A\	.	0ryy	.	1F/	qui	1f\	-di	4cc\	.
4G\	.	.	.	.	.	.	.	4b-\	.
4F\	.	.	.	.	.	.	.	4a\	.
!	!	!	!	!	!	!	!	!LO:TX:t=P:problem=kreska pseudotaktowa	!
4E\	.	.	.	.	.	.	.	4g\	.
2D/	.	.	.	2A/	tol-	2r	.	4f/	.
.	.	.	.	.	.	.	.	4e/	.
2G\	.	.	.	2B-/	-lis	2g\	qui	2d/	.
=17-	=17-	=17-	=17-	=17-	=17-	=17-	=17-	=17-	=17-
!LO:TX:t=P:problem=kreska pseudotaktowa	!	!	!	!	!	!	!	!LO:TX:t=P:global:problem=oddech jako rozdzielacz słów, przeważnie na wysokości dźwięku poprzedzającego	!
1C/	-di	0ryy	.	1c\	pec-	2e\	tol-	2c,/	-ta
*	*	*	*	*	*	*	*	*custos:a	*
!	!	!	!	!	!	!	!	!LO:TX:t=P:problem=kreska pseudotaktowa	!
.	.	.	.	.	.	2g\	-lis	2cc\	pec-
!	!	!	!	!	!	!	!	!LO:LB:g=original	!
0r	.	.	.	2d\	-ca-	2f\	pec-	2a\	-ca-
*	*	*	*	*custos:B-	*	*	*	*	*
!	!	!	!	!LO:TX:t=P:problem=kreska pseudotaktowa	!	!	!	!	!
.	.	.	.	2A/	-ta	2e/	-ca-	2cc\	-ta
!	!	!	!	!LO:LB:g=original	!	!	!	!	!
=18-	=18-	=18-	=18-	=18-	=18-	=18-	=18-	=18-	=18-
.	.	0ryy	.	1B-/	mun-	2d/	-ta	2b-\	mun-
!	!	!	!	!	!	!	!	!LO:TX:t=P:problem=kreska pseudotaktowa	!
.	.	.	.	.	.	1f\	mun-	2a\	.
!LO:TX:t=P:problem=kreska pseudotaktowa	!	!	!	!LO:TX:t=P:problem=kreska pseudotaktowa	!	!	!	!	!
1r	.	.	.	1c\	-di	.	.	2g,\	-di,
.	.	.	.	.	.	2e\	.	2g\	pec-
=19-	=19-	=19-	=19-	=19-	=19-	=19-	=19-	=19-	=19-
!	!	!	!	!	!	!LO:TX:t=P:problem=kreska pseudotaktowa	!	!	!
1F\	qui	0ryy	.	2r	.	1f\	-di	2.a\	-ca-
.	.	.	.	1f\	qui	.	.	.	.
.	.	.	.	.	.	.	.	4b-\	.
2.A\	tol-	.	.	.	.	2r	.	2cc\	.
!	!	!	!	!LO:TX:t=P:problem=kreska pseudotaktowa	!	!	!	!	!
.	.	.	.	[2e\	tol-	2c/	qui	2a\	.
4B-\	.	.	.	.	.	.	.	.	.
=20-	=20-	=20-	=20-	=20-	=20-	=20-	=20-	=20-	=20-
2c\	-lis	0ryy	.	2e\]	.	2e\	tol-	2g\	.
!LO:TX:t=P:problem=kreska pseudotaktowa	!	!	!	!	!	!	!	!LO:TX:t=P:problem=kreska pseudotaktowa	!
2A\	pec-	.	.	2c/	.	2f\	-lis	2cc\	.
!	!	!	!	!	!	!LO:TX:t=P:problem=kreska pseudotaktowa	!	!	!
1G\	.	.	.	1d\	-lis	1g\	pec-	2b-\	-ta
.	.	.	.	.	.	.	.	2.dd\	mun-
=21-	=21-	=21-	=21-	=21-	=21-	=21-	=21-	=21-	=21-
2F/	-ca-	0ryy	.	2f\	pec-	2a\	-ca-	.	.
.	.	.	.	.	.	.	.	4cc\	.
2C/	-ta	.	.	2.g\	-ca-	2e\	-ta	1cc\	.
1D/	mun-	.	.	.	.	1f\	mun-	.	.
.	.	.	.	4f\	.	.	.	.	.
!	!	!	!	!	!	!	!	!LO:TX:t=P:problem=kreska pseudotaktowa	!
.	.	.	.	1f\	.	.	.	2b-\	.
=22-	=22-	=22-	=22-	=22-	=22-	=22-	=22-	=22-	=22-
!LO:TX:t=P:problem=kreska pseudotaktowa	!	!	!	!	!	!	!	!LO:TX:t=P:problem=kreska pseudotaktowa	!
0C/	-di	0ryy	.	.	.	2g,\	-di	1cc\	-di
.	.	.	.	4e\	-ta	1g\	mi-	.	.
.	.	.	.	4d\	.	.	.	.	.
.	.	.	.	1e\	mun-	.	.	2r	.
.	.	.	.	.	.	2g\	-ſe-	1cc\	mi-
=23-	=23-	=23-	=23-	=23-	=23-	=23-	=23-	=23-	=23-
!	!	!	!	!LO:TX:t=P:problem=kreska pseudotaktowa	!	!	!	!	!
00r	.	0ryy	.	1f\	-di	2.a\	-re-	.	.
.	.	.	.	.	.	.	.	2cc\	-ſe-
.	.	.	.	.	.	4g\	.	.	.
.	.	.	.	00r	.	2f\	-re	2.dd\	-re-
*	*	*	*	*	*	*custos:d	*	*	*
!	!	!	!	!	!	!LO:TX:t=P:problem=kreska pseudotaktowa	!	!	!
.	.	.	.	.	.	2e/	.	.	.
.	.	.	.	.	.	.	.	4cc\	.
!	!	!	!	!	!	!LO:LB:g=original	!	!	!
=24-	=24-	=24-	=24-	=24-	=24-	=24-	=24-	=24-	=24-
.	.	0ryy	.	.	.	4d/	no-	2b-\	-re
.	.	.	.	.	.	4e/	.	.	.
!	!	!	!	!	!	!	!	!LO:TX:t=P:problem=kreska pseudotaktowa	!
.	.	.	.	.	.	4f/	.	2a\	no-
.	.	.	.	.	.	4d/	.	.	.
.	.	.	.	.	.	4e\	.	4g\	.
.	.	.	.	.	.	4f\	.	4a\	.
.	.	.	.	.	.	2g\	.	4b-\	.
.	.	.	.	.	.	.	.	4g\	.
=25-	=25-	=25-	=25-	=25-	=25-	=25-	=25-	=25-	=25-
!LO:TX:t=P:problem=kreska pseudotaktowa	!	!	!	!	!	!	!	!	!
1r	.	0ryy	.	.	.	2f\	.	4a\	.
.	.	.	.	.	.	.	.	4b-\	.
.	.	.	.	.	.	2e/	.	1cc\	.
1.G\	mi-	.	.	0r	.	0d/	.	.	.
.	.	.	.	.	.	.	.	4b-\	.
!	!	!	!	!	!	!	!	!LO:TX:t=P:problem=kreska pseudotaktowa	!
.	.	.	.	.	.	.	.	4a\	.
=26-	=26-	=26-	=26-	=26-	=26-	=26-	=26-	=26-	=26-
!	!	!	!	!LO:TX:t=P:problem=kreska pseudotaktowa	!	!	!	!	!
.	.	0ryy	.	.	.	.	.	4b-\	.
.	.	.	.	.	.	.	.	4a\	.
!LO:TX:t=P:problem=kreska pseudotaktowa	!	!	!	!	!	!	!	!	!
2G\	-ſe-	.	.	.	.	.	.	4g\	.
.	.	.	.	.	.	.	.	4f\	.
!	!	!	!	!	!	!LO:TX:t=P:problem=kreska pseudotaktowa	!	!	!
2.A\	-re-	.	.	2r	.	1c/	-bis	2e/	.
.	.	.	.	1c\	mi-	.	.	1a\	.
4G\	.	.	.	.	.	.	.	.	.
=27-	=27-	=27-	=27-	=27-	=27-	=27-	=27-	=27-	=27-
2F/	.	0ryy	.	.	.	1r	.	.	.
2E/	-re	.	.	2c/	-ſe-	.	.	2g\	.
!	!	!	!	!	!	!	!	!LO:TX:t=P:problem=kreska pseudotaktowa	!
2D/	.	.	.	(<2.d\	-re-	2r	.	1f/	-bis
1d\	no-	.	.	.	.	1f\	mi-	.	.
.	.	.	.	4c/	.	.	.	.	.
=28-	=28-	=28-	=28-	=28-	=28-	=28-	=28-	=28-	=28-
.	.	0ryy	.	2B-/)	.	.	.	0r	.
!LO:TX:t=P:problem=kreska pseudotaktowa	!	!	!	!	!	!	!	!	!
2c\	.	.	.	2A/	.	2f\	-ſe-	.	.
2B-\	.	.	.	2G,/	-re	2.g\	-re-	.	.
2.c\	.	.	.	1g\	no-	.	.	.	.
!	!	!	!	!	!	!LO:TX:t=P:problem=kreska pseudotaktowa	!	!	!
.	.	.	.	.	.	4f\	.	.	.
=29-	=29-	=29-	=29-	=29-	=29-	=29-	=29-	=29-	=29-
!	!	!	!	!	!	!	!	!LO:TX:t=P:problem=kreska pseudotaktowa	!
.	.	0ryy	.	.	.	2e/	-re	1r	.
4G\	.	.	.	.	.	.	.	.	.
2B-\	.	.	.	2.f\	.	2d/	.	.	.
2A\	.	.	.	.	.	2c/	no-	2r	.
.	.	.	.	4e\	.	.	.	.	.
!	!	!	!	!LO:TX:t=P:problem=kreska pseudotaktowa	!	!	!	!	!
2F/	-bis	.	.	2a\	.	1f\	.	1cc\	mi-
=30-	=30-	=30-	=30-	=30-	=30-	=30-	=30-	=30-	=30-
!LO:TX:t=P:problem=kreska pseudotaktowa	!	!	!	!	!	!	!	!	!
1c\	.	0ryy	.	1g\	.	.	.	.	.
!	!	!	!	!	!	!	!	!LO:TX:t=P:problem=kreska pseudotaktowa	!
.	.	.	.	.	.	2e\	.	2cc\	-ſe-
!	!	!	!	!	!	!	!	!LO:LB:g=original	!
0r	.	.	.	2f,\	-bis	2.d/	.	2.dd\	-re-
.	.	.	.	4B-/	mi-	.	.	.	.
.	.	.	.	4c/	.	4e/	.	4cc\	-re
=31-	=31-	=31-	=31-	=31-	=31-	=31-	=31-	=31-	=31-
.	.	0ryy	.	4d\	.	1f\	.	2b-\	no-
.	.	.	.	4e\	.	.	.	.	.
.	.	.	.	1f\	-se-	.	.	2a\	.
!	!	!	!	!	!	!	!	!LO:TX:t=P:problem=kreska pseudotaktowa	!
1.C/	/mi-	.	.	.	.	2c/	.	1g\	.
!	!	!	!	!	!	!LO:TX:t=P:problem=kreska pseudotaktowa	!	!	!
.	.	.	.	4e\	re-	2g\	.	.	.
.	.	.	.	4d\	.	.	.	.	.
=32-	=32-	=32-	=32-	=32-	=32-	=32-	=32-	=32-	=32-
.	.	0ryy	.	2e\	-re	2g\	.	2.cc\	.
!LO:TX:t=P:problem=kreska pseudotaktowa	!	!	!	!	!	!	!	!	!
2C/	.	.	.	2e\	no-	1a\	.	.	.
.	.	.	.	.	.	.	.	4b-\	.
2.D/	-ſe-	.	.	2.f\	.	.	.	4a\	.
.	.	.	.	.	.	.	.	4g\	.
.	.	.	.	.	.	2d/	.	2.f/	.
*	*	*	*	*custos:d	*	*	*	*	*
!	!	!	!	!LO:TX:t=P:problem=kreska pseudotaktowa	!	!	!	!	!
4C/	.	.	.	4e\	.	.	.	.	.
!	!	!	!	!LO:LB:g=original	!	!	!	!	!
=33-	=33-	=33-	=33-	=33-	=33-	=33-	=33-	=33-	=33-
2BB-/	-re-	0ryy	.	2d\	.	2.f\	.	.	.
.	.	.	.	.	.	.	.	4g/	.
2AA/	-re	.	.	2c,\	-bis	.	.	2a\	.
.	.	.	.	.	.	4e/	.	.	.
1BB-/	no-	.	.	2.B-/	no-	1d/	.	2g/	.
!	!	!	!	!	!	!	!	!LO:TX:t=P:problem=kreska pseudotaktowa	!
.	.	.	.	.	.	.	.	2f/	.
.	.	.	.	4A/	.	.	.	.	.
=34-	=34-	=34-	=34-	=34-	=34-	=34-	=34-	=34-	=34-
0C/	.	0ryy	.	2G/	.	0c/	.	2e/	.
.	.	.	.	2F/	.	.	.	1f/	.
.	.	.	.	1G/	.	.	.	.	.
.	.	.	.	.	.	.	.	2e/	.
=35-	=35-	=35-	=35-	=35-	=35-	=35-	=35-	=35-	=35-
0F\;	-bis/	0ryy	.	0A/;	-bis.	0c/;	-bis.	0f/;	-bis.
!LO:LB:g=original	!	!	!	!	!	!	!	!	!
=36||-	=36||-	=36||-	=36||-	=36||-	=36||-	=36||-	=36||-	=36||-	=36||-
*clefF3	*	*clefC3	*	*clefC3	*	*	*	*	*
*k[b-b-]	*	*k[b-]	*	*k[b-]	*	*	*	*	*
*M2/1	*	*M2/1	*	*M2/1	*	*M2/1	*	*M2/1	*
*met(C|)	*	*met(C|)	*	*met(C|)	*	*met(C|)	*	*met(C|)	*
!LO:TX:a:t=à 5. Vocib(us)\n2 bg Tenorib(us)	!	!LO:TX:a:t=2do.	!	!LO:TX:a:t=Imo.	!	!	!	!	!
!	!	!	!	!LO:TX:t=P:problem=kreska pseudotaktowa	!	!	!	!	!
2.F\	A-	00r	.	00r	.	1c/	Ag-	00r	.
!LO:TX:t=P:problem=kreska pseudotaktowa	!	!	!	!	!	!	!	!	!
4G\	.	.	.	.	.	.	.	.	.
!	!	!	!	!	!	!LO:TX:t=P:problem=kreska pseudotaktowa	!	!	!
4A\	.	.	.	.	.	1c/	-n(us)	.	.
4B-\	.	.	.	.	.	.	.	.	.
1c\	.	.	.	.	.	.	.	.	.
=37-	=37-	=37-	=37-	=37-	=37-	=37-	=37-	=37-	=37-
.	.	.	.	.	.	1d/	De-	.	.
!LO:TX:t=P:problem=kreska pseudotaktowa	!	!	!	!	!	!	!	!	!
2B-\	-gnus	.	.	.	.	.	.	.	.
2A\	.	.	.	.	.	1e\	.	.	.
!LO:TX:t=P:problem=kreska pseudotaktowa	!	!	!	!	!	!	!	!	!
2G\	De-	.	.	.	.	.	.	.	.
=38-	=38-	=38-	=38-	=38-	=38-	=38-	=38-	=38-	=38-
!	!	!LO:TX:t=P:problem=kreska pseudotaktowa	!	!	!	!LO:TX:t=P:problem=kreska pseudotaktowa	!	!	!
2.A\	-i	00r	.	2.F/	A-	0c/	-i	00r	.
4G\	.	.	.	4G/	.	.	.	.	.
2F\	.	.	.	4A/	.	.	.	.	.
.	.	.	.	4B-/	.	.	.	.	.
!LO:TX:t=P:problem=kreska pseudotaktowa	!	!	!	!	!	!	!	!	!
2A\	.	.	.	1c\	.	.	.	.	.
=39-	=39-	=39-	=39-	=39-	=39-	=39-	=39-	=39-	=39-
*	*	*	*	*	*	*lig	*ij	*	*
1G\	.	.	.	.	.	1d/	Ag-	.	.
!	!	!	!	!LO:TX:t=P:problem=kreska pseudotaktowa	!	!	!	!	!
.	.	.	.	2B-/	.	.	.	.	.
!LO:TX:t=P:problem=kreska pseudotaktowa	!	!	!	!	!	!	!	!	!
1C/	.	.	.	2A/	-gnus	1e\	.	.	.
.	.	.	.	2G,/	.	.	.	.	.
*	*	*	*	*	*	*Xlig	*	*	*
=40-	=40-	=40-	=40-	=40-	=40-	=40-	=40-	=40-	=40-
!	!	!	!	!	!	!	!	!LO:TX:t=P:problem=kreska pseudotaktowa	!
2r	.	2.F/	A-	2.A/	De-	1.f\	-n(us)	0r	.
2F/	A-	.	.	.	.	.	.	.	.
.	.	4G/	.	4G/	.	.	.	.	.
2D/	.	4A/	.	2F/	.	.	.	.	.
.	.	4B-/	.	.	.	.	.	.	.
!LO:TX:t=P:problem=kreska pseudotaktowa	!	!	!	!	!	!	!	!	!
2C/	-gnus	1c\	-gnus	2G/	.	2e\	De-	.	.
=41-	=41-	=41-	=41-	=41-	=41-	=41-	=41-	=41-	=41-
!	!	!	!	!LO:TX:t=P:problem=kreska pseudotaktowa	!	!	!	!	!
2.D/	De-	.	.	1F/	-i.	1d/	.	1f/	Ag-
.	.	2B-/	.	.	.	.	.	.	.
4E/	.	.	.	.	.	.	.	.	.
*lig	*	*lig	*	*	*	*	*	*	*
!	!	!	!	!	!	!	!	!LO:TX:t=P:problem=kreska pseudotaktowa	!
1F\	.	1A/	De-	2r	.	0c/	-i	1f/	-nus
*	*	*	*	*	*	*	*Xij	*	*
.	.	.	.	1f\	A-	.	.	.	.
!	!	!	!	!	!	!LO:LB:g=original	!	!	!
=42-	=42-	=42-	=42-	=42-	=42-	=42-	=42-	=42-	=42-
!LO:TX:t=P:problem=kreska pseudotaktowa	!	!	!	!	!	!LO:TX:t=P:problem=kreska pseudotaktowa	!	!	!
1C/	-i	1G/	.	.	.	.	.	1g\	De-
.	.	.	.	2e\	-gn(us)	.	.	.	.
*Xlig	*	*Xlig	*	*	*	*	*	*	*
!	!	!LO:TX:t=P:problem=kreska pseudotaktowa	!	!	!	!	!	!LO:TX:t=P:problem=kreska pseudotaktowa	!
00r	.	1F/	-i	2d\	De-	00r	.	1a\	-i
!	!	!	!	!LO:TX:t=P:problem=kreska pseudotaktowa	!	!	!	!	!
.	.	.	.	2c\	.	.	.	.	.
=43-	=43-	=43-	=43-	=43-	=43-	=43-	=43-	=43-	=43-
.	.	2.B-/	A-	2.d\	.	.	.	0f/	A-
.	.	4c/	.	4c/	.	.	.	.	.
.	.	4d\	.	4B-/	.	.	.	.	.
.	.	4e\	.	4c/	.	.	.	.	.
.	.	1f\	.	2d\	.	.	.	.	.
=44-	=44-	=44-	=44-	=44-	=44-	=44-	=44-	=44-	=44-
*	*	*	*	*lig	*	*	*	*	*
!	!	!	!	!	!	!LO:TX:t=P:problem=kreska pseudotaktowa	!	!	!
*	*	*2\right	*	*	*	*	*	*lig	*
.	.	.	.	1c\	.	.	.	1g\	-gnus
.	.	2e\	.	.	.	.	.	.	.
!LO:TX:t=P:problem=kreska pseudotaktowa	!	!	!	!	!	!	!	!LO:TX:t=P:problem=kreska pseudotaktowa	!
00r	.	2d\	-gnus	1F/	.	1r	.	1a\	.
.	.	2c\	.	.	.	.	.	.	.
*	*	*	*	*Xlig	*	*	*	*Xlig	*
=45-	=45-	=45-	=45-	=45-	=45-	=45-	=45-	=45-	=45-
!	!	!	!	!LO:TX:t=P:problem=kreska pseudotaktowa	!	!	!	!	!
.	.	2.d\	De-	0f\	-i,	2.B-/	A-	1.b-\	De-
.	.	4c/	.	.	.	4c/	.	.	.
.	.	2B-/	.	.	.	4d/	.	.	.
.	.	.	.	.	.	4e/	.	.	.
.	.	2F/	.	.	.	1f\	.	2a\	.
=46-	=46-	=46-	=46-	=46-	=46-	=46-	=46-	=46-	=46-
!	!	!LO:TX:t=P:problem=kreska pseudotaktowa	!	!	!	!	!	!LO:TX:t=P:problem=kreska pseudotaktowa	!
.	.	1c\	-i	2r	.	.	.	1g\	.
!	!	!	!	!	!	!LO:TX:t=P:problem=kreska pseudotaktowa	!	!	!
.	.	.	.	2c\	qui	2e\	-gn(us)	.	.
2r	.	00r	.	2d\	tol-	1.a\	De-	4f/	.
.	.	.	.	.	.	.	.	4g/	.
!	!	!	!	!LO:TX:t=P:problem=kreska pseudotaktowa	!	!	!	!	!
2F\	Qui	.	.	[<2f\	-lis	.	.	4a/	.
.	.	.	.	.	.	.	.	4b-/	.
!	!	!	!	!LO:LB:g=original	!	!	!	!	!
=47-	=47-	=47-	=47-	=47-	=47-	=47-	=47-	=47-	=47-
2A\	tol-	.	.	2f\]	.	.	.	2cc\	.
!LO:TX:t=P:problem=kreska pseudotaktowa	!	!	!	!	!	!	!	!	!
2B-\	-lis	.	.	1g\	pec-	4g\	.	4b-\	.
.	.	.	.	.	.	4f\	.	4a\	.
!	!	!	!	!	!	!LO:TX:t=P:problem=kreska pseudotaktowa	!	!	!
1c\	pec-	.	.	.	.	1e\	.	2g,\	-i
!	!	!	!	!	!	!	!	!LO:TX:t=P:problem=kreska pseudotaktowa	!
.	.	.	.	1a\	-ca-	.	.	2cc\	qui
!	!	!	!	!	!	!	!	!LO:LB:g=original	!
=48-	=48-	=48-	=48-	=48-	=48-	=48-	=48-	=48-	=48-
!LO:TX:t=P:problem=kreska pseudotaktowa	!	!	!	!	!	!LO:TX:t=P:problem=kreska pseudotaktowa	!	!	!
1d\	-ca-	.	.	.	.	1f\	-i	2a\	tol-
!	!	!	!	!LO:TX:t=P::problem=kreska pseudotaktowa&colon;między nutą a kropką	!	!	!	!	!
.	.	.	.	[<2f\	-ta	.	.	2b-\	-lis
!	!	!	!	!LO:N:xstem:cue	!	!	!	!	!
2.A\	-ta	0r	.	4f\]	.	2r	.	1cc\	pec-
.	.	.	.	4e\	.	.	.	.	.
.	.	.	.	2a\	.	2c/	qui	.	.
!LO:TX:t=P:problem=kreska pseudotaktowa	!	!	!	!	!	!	!	!	!
4B-\	.	.	.	.	.	.	.	.	.
=49-	=49-	=49-	=49-	=49-	=49-	=49-	=49-	=49-	=49-
2c\	.	.	.	2g\	mun-	2e\	tol-	2cc\	-ca-
!LO:TX:t=P:problem=kreska pseudotaktowa	!	!	!	!	!	!	!	!	!
2d\	.	.	.	1f\	.	2f\	-lis	2b-\	-ta
!	!	!LO:TX:t=P:problem=kreska pseudotaktowa	!	!	!	!	!	!	!
2.c\	mun-	1r	.	.	.	1g\	pec-	1cc\	mun-
.	.	.	.	2e\	.	.	.	.	.
4B-\	.	.	.	.	.	.	.	.	.
=50-	=50-	=50-	=50-	=50-	=50-	=50-	=50-	=50-	=50-
!	!	!	!	!	!	!LO:TX:t=P:problem=kreska pseudotaktowa	!	!LO:TX:t=P:problem=kreska pseudotaktowa	!
4A\	.	1F/	Qui	2.f\	.	1a\	-ca-	1cc\	-di
4G\	.	.	.	.	.	.	.	.	.
2.F/	.	.	.	.	.	.	.	.	.
.	.	.	.	8e\L	.	.	.	.	.
!	!	!	!	!LO:TX:t=P:problem=kreska pseudotaktowa	!	!	!	!	!
.	.	.	.	8d\J	.	.	.	.	.
!	!	!	!	!	!	!	!	!LO:TX:t=P:problem=kreska pseudotaktowa	!
.	.	2A/	tol-	2c/	.	1f\	-ta	0r	.
4E/	.	.	.	.	.	.	.	.	.
2D/	-di.	2B-/	-lis	1B-/	.	.	.	.	.
=51-	=51-	=51-	=51-	=51-	=51-	=51-	=51-	=51-	=51-
*lig	*	*	*	*	*	*	*	*	*
1C/	.	1c\	pec-	.	.	1e-X\	mun-	.	.
.	.	.	.	2A/	-di	.	.	.	.
!LO:TX:t=P:problem=kreska pseudotaktowa	!	!	!	!LO:TX:t=P:problem=kreska pseudotaktowa	!	!	!	!	!
1BB-/	.	0d\	-ca-	1B-/	.	2d,/	-di	1f/	Qui
.	.	.	.	.	.	2B-/	pec-	.	.
!	!	!	!	!	!	!LO:TX:t=P:problem=kreska pseudotaktowa	!	!	!
*Xlig	*	*	*	*	*	*	*	*	*
=52-	=52-	=52-	=52-	=52-	=52-	=52-	=52-	=52-	=52-
!LO:TX:t=P:problem=kreska pseudotaktowa	!	!	!	!	!	!	!	!	!
00r	.	.	.	2r	.	2.f\	-ca-	2a\	tol-
.	.	.	.	2f\	qui	.	.	2b-\	-lis
.	.	.	.	.	.	4g\	.	.	.
!	!	!LO:TX:t=P:problem=kreska pseudotaktowa	!	!	!	!	!	!	!
.	.	1A/	-ta	2e\	tol-	2.a\	.	1cc\	pec-
.	.	.	.	2f\	-lis	.	.	.	.
.	.	.	.	.	.	4g\	.	.	.
=53-	=53-	=53-	=53-	=53-	=53-	=53-	=53-	=53-	=53-
!	!	!	!	!	!	!	!	!LO:TX:t=P:problem=kreska pseudotaktowa	!
.	.	2.B-/	mun-	2d\	pec-	2f\	.	1dd\	-ca-
!	!	!	!	!	!	!LO:TX:t=P:problem=kreska pseudotaktowa	!	!	!
.	.	.	.	1f\	.	2d/	-ta	.	.
.	.	4c/	.	.	.	.	.	.	.
.	.	1d\	.	.	.	1f\	.	2a\	-ta
.	.	.	.	4e\	-ca-	.	.	2b-\	.
!	!	!	!	!LO:TX:t=P:problem=kreska pseudotaktowa	!	!	!	!	!
.	.	.	.	4d\	.	.	.	.	.
!LO:LB:g=original	!	!	!	!	!	!	!	!	!
=54-	=54-	=54-	=54-	=54-	=54-	=54-	=54-	=54-	=54-
!	!	!LO:TX:t=P:problem=kreska pseudotaktowa	!	!	!	!	!	!	!
2r	.	1c\	-di	2e\	-ta	2g\	mun-	1.cc\	mun-
!LO:TX:t=P:problem=kreska pseudotaktowa	!	!	!	!	!	!	!	!	!
2F\	qui	.	.	2f\	.	2a\	.	.	.
!	!	!	!	!	!	!LO:TX:t=P:problem=kreska pseudotaktowa	!	!	!
2A\	tol-	00r	.	2c/	mun-	1f\	-di	.	.
2B-\	-lis	.	.	1f\	.	.	.	4b-\	.
.	.	.	.	.	.	.	.	4a\	.
=55-	=55-	=55-	=55-	=55-	=55-	=55-	=55-	=55-	=55-
!LO:TX:t=P:problem=kreska pseudotaktowa	!	!	!	!	!	!	!	!	!
1c\	pec-	.	.	.	.	1r	.	1g\	.
.	.	.	.	2e\	-di	.	.	.	.
!	!	!	!	!LO:TX:t=P:problem=kreska pseudotaktowa	!	!	!	!	!
2d\	-ca-	.	.	1f\	.	2r	.	0.f/	-di
!LO:TX:t=P:problem=kreska pseudotaktowa	!	!	!	!	!	!	!	!	!
2A\	.	.	.	.	.	2c/	qui	.	.
=56-	=56-	=56-	=56-	=56-	=56-	=56-	=56-	=56-	=56-
!	!	!	!	!	!	!	!	!LO:TX:t=P:problem=kreska pseudotaktowa	!
2B-\	-ta	.	.	2r	.	2d/	tol-	.	.
*lig	*	*	*	*	*	*	*	*	*
1c\	mun-	.	.	2F/	qui	2A/	-lis	.	.
*	*	*custos:F	*	*	*	*	*	*	*
!	!	!LO:TX:t=P:problem=kreska pseudotaktowa	!	!	!	!	!	!	!
.	.	1r	.	2A/	tol-	2c/	pec-	.	.
1B-\	.	.	.	2B-/	-lis	2d/	-ca-	.	.
*Xlig	*	*	*	*	*	*	*	*	*
!	!	!LO:LB:g=original	!	!	!	!	!	!	!
=57-	=57-	=57-	=57-	=57-	=57-	=57-	=57-	=57-	=57-
.	.	1F/	pec-	1c\	pec-	1f\	-(ta)	00r	.
!LO:TX:t=P:problem=kreska pseudotaktowa	!	!	!	!	!	!	!	!	!
2A\	.	.	.	.	.	.	.	.	.
!	!	!	!	!LO:TX:t=P:problem=kreska pseudotaktowa	!	!	!	!	!
2.B-\	.	4B-/	-ca-	1d\	-ca-	2.f\	mun-	.	.
.	.	4c/	.	.	.	.	.	.	.
.	.	4d/	.	.	.	.	.	.	.
8A\L	.	4e/	.	.	.	4g\	.	.	.
!LO:TX:t=P:problem=kreska pseudotaktowa	!	!	!	!	!	!	!	!	!
8G\J	.	.	.	.	.	.	.	.	.
=58-	=58-	=58-	=58-	=58-	=58-	=58-	=58-	=58-	=58-
2F\	.	2f\	.	2A/	-ta	2a\	.	.	.
*	*	*	*	*	*	*lig	*	*	*
2G\	.	2d\	-ta	2B-/	mun-	1g\	.	.	.
2E/	.	2c/	mun-	0.c\	-di	.	.	.	.
!LO:TX:t=P:problem=kreska pseudotaktowa	!	!	!	!	!	!	!	!	!
2F/	.	2A/	.	.	.	1f\	.	.	.
*	*	*	*	*	*	*Xlig	*	*	*
=59-	=59-	=59-	=59-	=59-	=59-	=59-	=59-	=59-	=59-
!	!	!LO:TX:t=P:problem=kreska pseudotaktowa	!	!LO:TX:t=P:problem=kreska pseudotaktowa	!	!	!	!LO:TX:t=P:problem=kreska pseudotaktowa	!
1C/	-di.	1G/	-di	.	.	.	.	1r	.
*	*	*	*	*	*	*custos:d	*	*	*
!	!	!	!	!	!	!LO:TX:t=P:problem=kreska pseudotaktowa	!	!	!
.	.	.	.	.	.	2e\	.	.	.
!	!	!	!	!	!	!LO:LB:g=original	!	!	!
!LO:TX:t=P:problem=kreska pseudotaktowa	!	!	!	!	!	!	!	!	!
1F\	.	2r	.	.	.	2f,\	-di	2r	.
.	.	1A/	Do-	.	.	1c/	Do-	1f/	Do-
=60-	=60-	=60-	=60-	=60-	=60-	=60-	=60-	=60-	=60-
!	!	!	!	!LO:TX:t=P:problem=kreska pseudotaktowa	!	!	!	!	!
00r	.	.	.	00r	.	.	.	.	.
!	!	!LO:TX:t=P:problem=kreska pseudotaktowa	!	!	!	!	!	!	!
.	.	2B-/	-na	.	.	2d/	-na	2g/	-na
.	.	2c/	no-	.	.	2e/	no-	2a\	no-
.	.	2A/	-bis	.	.	2c/	.	2f/	-bis
=61-	=61-	=61-	=61-	=61-	=61-	=61-	=61-	=61-	=61-
.	.	2B-/	pa-	.	.	2d/	-bis	2.g\	pa-
.	.	2c/	.	.	.	2e\	pa-	.	.
.	.	.	.	.	.	.	.	4a\	.
.	.	2.d\	.	.	.	2.f\	.	2b-\	.
.	.	.	.	.	.	.	.	2a\	.
.	.	4c/	.	.	.	4e/	.	.	.
!	!	!	!	!LO:LB:g=original	!	!	!	!	!
=62-	=62-	=62-	=62-	=62-	=62-	=62-	=62-	=62-	=62-
0r	.	2.B-/	.	2r	.	2.d/	.	2g/	.
.	.	.	.	1B-/	Do-	.	.	2f/	.
!	!	!	!	!	!	!LO:TX:t=P:problem=kreska pseudotaktowa	!	!	!
.	.	4A/	.	.	.	4c/	.	.	.
.	.	2G/	.	.	.	4d/	.	2b-\	.
.	.	.	.	.	.	4e/	.	.	.
.	.	2F/	.	2c/	-na	1f\	.	1a\	.
=63-	=63-	=63-	=63-	=63-	=63-	=63-	=63-	=63-	=63-
!LO:TX:t=P:problem=kreska pseudotaktowa	!	!	!	!	!	!	!	!	!
1r	.	1B-/	.	1d\	no-	.	.	.	.
.	.	.	.	.	.	4e/	.	2g\	.
.	.	.	.	.	.	4d/	.	.	.
!	!	!LO:TX:t=P:problem=kreska pseudotaktowa	!	!	!	!	!	!LO:TX:t=P:problem=kreska pseudotaktowa	!
2r	.	1A/	-cem	2c/	-bis	2e/	.	1a\	-cem
!	!	!	!	!	!	!LO:TX:t=P:problem=kreska pseudotaktowa	!	!	!
1F\	Do-	.	.	1A/	pa-	2c/	.	.	.
=64-	=64-	=64-	=64-	=64-	=64-	=64-	=64-	=64-	=64-
.	.	0r	.	.	.	2d/	.	00r	.
!LO:TX:t=P:problem=kreska pseudotaktowa	!	!	!	!LO:TX:t=P:problem=kreska pseudotaktowa	!	!	!	!	!
2G\	-na	.	.	2B-/	.	2.e/	.	.	.
2A\	no-	.	.	2c/	.	.	.	.	.
.	.	.	.	.	.	4c/	.	.	.
!	!	!	!	!	!	!LO:TX:t=P:problem=kreska pseudotaktowa	!	!	!
2F\	-bis	.	.	2A/	.	2d/	.	.	.
=65-	=65-	=65-	=65-	=65-	=65-	=65-	=65-	=65-	=65-
!	!	!LO:TX:t=P:problem=kreska pseudotaktowa	!	!	!	!	!	!	!
2G\	pa-	1r	.	2B-/	.	2e\	.	.	.
!LO:TX:t=P:problem=kreska pseudotaktowa	!	!	!	!LO:TX:t=P:problem=kreska pseudotaktowa	!	!	!	!	!
2A\	.	.	.	2c\	.	2.f\	.	.	.
2.B-\	.	2r	.	2.d\	.	.	.	.	.
.	.	.	.	.	.	4e/	.	.	.
*	*	*	*ij	*	*	*	*	*	*
.	.	1B-/	Do-	.	.	2f\	.	.	.
4A\	.	.	.	4c\	.	.	.	.	.
=66-	=66-	=66-	=66-	=66-	=66-	=66-	=66-	=66-	=66-
!	!	!	!	!	!	!	!	!LO:TX:t=P:problem=kreska pseudotaktowa	!
2G\	.	.	.	4d\	.	2g\	.	0r	.
.	.	.	.	4e\	.	.	.	.	.
4F/	.	2c/	-na	2.f\	.	2a\	.	.	.
!LO:TX:t=P:problem=kreska pseudotaktowa	!	!	!	!	!	!	!	!	!
4E/	.	.	.	.	.	.	.	.	.
!	!	!	!	!	!	!LO:TX:t=P:problem=kreska pseudotaktowa	!	!	!
1D/	.	2d\	no-	.	.	1f\	-cem	.	.
.	.	.	.	4e\	.	.	.	.	.
*	*	*	*	*	*	*	*	*custos:b-	*
!	!	!	!	!LO:TX:t=P:problem=kreska pseudotaktowa	!	!	!	!	!
.	.	2B-/	-bis	2d\	.	.	.	.	.
!	!	!	!	!	!	!	!	!LO:LB:g=original	!
=67-	=67-	=67-	=67-	=67-	=67-	=67-	=67-	=67-	=67-
2E-X/	.	2c\	pa-	2c/	.	0r	.	2r	.
!	!	!LO:TX:t=P:problem=kreska pseudotaktowa	!	!	!	!	!	!	!
2D/	.	2d\	.	1B-/	.	.	.	2b-\	Do-
!LO:TX:t=P:problem=kreska pseudotaktowa	!	!	!	!	!	!	!	!	!
*	*	*lig	*	*	*	*	*	*	*
1C/	.	1e-X\	.	.	.	.	.	1cc\	-na
.	.	.	.	2A/	.	.	.	.	.
=68-	=68-	=68-	=68-	=68-	=68-	=68-	=68-	=68-	=68-
2BB-,/	-cem	1d\	.	1B-/	.	1r	.	2dd\	no-
*	*ij	*	*	*	*	*	*	*	*
1B-\	Do-	.	.	.	.	.	.	2b-\	-bis
*	*	*Xlig	*	*	*	*	*	*	*
!	!	!	!	!LO:TX:t=P:problem=kreska pseudotaktowa	!	!	!	!	!
*	*	*	*	*	*	*	*ij	*lig	*
.	.	1c\	.	1F/	-cem.	1.f\	Do-	1cc\	pa-
!LO:TX:t=P:problem=kreska pseudotaktowa	!	!	!	!	!	!	!	!	!
2A\	-na	.	.	.	.	.	.	.	.
=69-	=69-	=69-	=69-	=69-	=69-	=69-	=69-	=69-	=69-
1B-\	no-	4B-/	.	0r	.	.	.	1dd\	.
.	.	4c/	.	.	.	.	.	.	.
.	.	4d/	.	.	.	2g\	-na	.	.
.	.	4e/	.	.	.	.	.	.	.
!	!	!LO:TX:t=P:problem=kreska pseudotaktowa	!	!	!	!	!	!	!
*	*	*	*	*	*	*	*	*Xlig	*
!LO:TX:t=P:problem=kreska pseudotaktowa	!	!	!	!	!	!	!	!	!
1F\	-bis	4f\	.	.	.	2a\	no-	0cc\,	-cem
.	.	4c\	.	.	.	.	.	.	.
.	.	1f\	.	.	.	2f\	-bis	.	.
=70-	=70-	=70-	=70-	=70-	=70-	=70-	=70-	=70-	=70-
!	!	!	!	!	!	!	!	!LO:TX:t=P:problem=kreska pseudotaktowa	!
1c\	pa-	.	.	1r	.	1g\	pa-	.	.
*	*	*custos:f	*	*	*	*	*	*	*
!	!	!LO:TX:t=P:problem=kreska pseudotaktowa	!	!	!	!	!	!	!
.	.	2e\	.	.	.	.	.	.	.
*custos:BB-	*	*	*	*	*	*	*	*	*
!	!	!LO:LB:g=original	!	!	!	!	!	!	!
!LO:TX:t=P:problem=kreska pseudotaktowa	!	!	!	!	!	!LO:TX:t=P:problem=kreska pseudotaktowa	!	!	!
1F\	-cem	2f,\	-cem	2r	.	1a\	-cem	2r	.
*	*Xij	*	*Xij	*	*	*	*Xij	*	*ij
.	.	1c\	Do-	1A/	Do-	.	.	1f/	Do-
!LO:LB:g=original	!	!	!	!	!	!	!	!	!
=71-	=71-	=71-	=71-	=71-	=71-	=71-	=71-	=71-	=71-
!LO:TX:t=P:problem=kreska pseudotaktowa	!	!	!	!	!	!	!	!	!
00r	.	.	.	.	.	00r	.	.	.
.	.	2d\	-na	2B-/	-na	.	.	2g/	-na
.	.	2e\	no-	2c/	no-	.	.	2a\	no-
!	!	!LO:TX:t=P:problem=kreska pseudotaktowa	!	!LO:TX:t=P:problem=kreska pseudotaktowa	!	!	!	!	!
.	.	2c\	-bis	2A/	-bis	.	.	2f/	-bis
=72-	=72-	=72-	=72-	=72-	=72-	=72-	=72-	=72-	=72-
.	.	2d\	pa-	2B-/	pa-	.	.	2g\	pa-
.	.	2e\	.	2c/	.	.	.	2a\	.
.	.	2.f\	.	2.d\	.	.	.	2.b-\	.
!	!	!LO:TX:t=P:problem=kreska pseudotaktowa	!	!	!	!	!	!	!
.	.	4e\	.	4c/	.	.	.	4a\	.
=73-	=73-	=73-	=73-	=73-	=73-	=73-	=73-	=73-	=73-
2r	.	1.d\	.	2.B-/	.	0r	.	2g/	.
1BB-/	Do-	.	.	.	.	.	.	1f/	.
.	.	.	.	4A/	.	.	.	.	.
!	!	!	!	!LO:TX:t=P:problem=kreska pseudotaktowa	!	!	!	!	!
.	.	.	.	1G/	.	.	.	.	.
!LO:TX:t=P:problem=kreska pseudotaktowa	!	!	!	!	!	!	!	!	!
2C/	-na	4c/	.	.	.	.	.	2e/	.
.	.	4B-/	.	.	.	.	.	.	.
=74-	=74-	=74-	=74-	=74-	=74-	=74-	=74-	=74-	=74-
!	!	!	!	!	!	!	!	!LO:TX:t=P:problem=kreska pseudotaktowa	!
2D/	no-	2A/	.	2F/	-cem	2r	.	1f/	-cem
!LO:TX:t=P:problem=kreska pseudotaktowa	!	!	!	!	!	!	!	!	!
*	*	*	*	*	*ij	*	*	*	*Xij
2BB-/	-bis	1d\	.	1F/	Do-	1B-/	Do-	.	.
!	!	!	!	!	!	!	!	!LO:TX:t=P:problem=brakująca pauza?	!
2D/	pa-	.	.	.	.	.	.	1ryy	.
!LO:TX:t=P:problem=kreska pseudotaktowa	!	!	!	!	!	!	!	!	!
2E-X/	.	1c\	.	2G/	-na	2c/	-na	.	.
=75-	=75-	=75-	=75-	=75-	=75-	=75-	=75-	=75-	=75-
!	!	!	!	!	!	!	!	!LO:TX:t=P:problem=kreska pseudotaktowa	!
2F/	.	.	.	2A/	no-	2d/	.	0r	.
!LO:TX:t=P:problem=kreska pseudotaktowa	!	!	!	!	!	!	!	!	!
2D/	.	1B-/	.	2F/	-bis	2B-/	no-	.	.
2E-X/	.	.	.	2G/	pa-	1c/	-bis	.	.
!LO:TX:t=P:problem=kreska pseudotaktowa	!	!LO:TX:t=P:problem=kreska pseudotaktowa	!	!	!	!	!	!	!
2F/	.	2A/	.	2A/	.	.	.	.	.
=76-	=76-	=76-	=76-	=76-	=76-	=76-	=76-	=76-	=76-
*	*	*	*	*lig	*	*	*	*	*
2BB-,/	-cem	2.f\	.	1B-/	.	2.d/	pa-	2r	.
1B-\	do-	.	.	.	.	.	.	1b-\	Do-
.	.	4e\	.	.	.	4e/	.	.	.
.	.	2d\	.	1F/	.	0.f\	.	.	.
2A\	-na	2c/	.	.	.	.	.	2cc\	-na
!LO:TX:t=P:problem=kreska pseudotaktowa	!	!	!	!	!	!	!	!LO:TX:t=P:problem=kreska pseudotaktowa	!
*	*	*	*	*Xlig	*	*	*	*	*
=77-	=77-	=77-	=77-	=77-	=77-	=77-	=77-	=77-	=77-
2B-\	no-	2.B-/	.	00F/;	-cem	.	.	2dd\	no-
2BB-/	-bis	.	.	.	.	.	.	2dd\	-bis
.	.	4c/	.	.	.	.	.	.	.
1B-\	pa-	1d\	.	.	.	.	.	1b-\	pa-
=78-	=78-	=78-	=78-	=78-	=78-	=78-	=78-	=78-	=78-
!	!	!LO:TX:a:t=O. ad M.D.Gm.	!	!	!	!	!	!	!
0F\;	-cem.	0c\;	-cem.	.	.	0f\;	-cem	0a\;	-cem.
=-	=-	=-	=-	=-	=-	=-	=-	=-	=-
*-	*-	*-	*-	*-	*-	*-	*-	*-	*-
!!!system-decoration: [(s1,s2,s3,s4,s5)]
!!!EED: Leszek Kubiak
!!!EEV: 2021-03-22
!!!ENC: Tomasz Grochalski
!!!END: 2021-03-03
!!!YEC: Copyright 2022 Narodowy Instytut Fryderyka Chopina (https://polishscores.org)
!!!YEM: License CC-BY-4.0 (https://creativecommons.org/licenses/by/4.0)
